X:192
T: Der Mutter und Tochter dasselbe gefaellt
N: A0227
O: Europa, Mitteleuropa, Deutschland
N: Franck, Fasc. quodl. 1611 No. 6.
R: Romanze, Ballade, Lied
M: 4/4
L: 1/4
K: C
G | ECDG, | CED
D | EGG^F | G2z
D | EFGE | FDE
G, | A,CCB, | C2z

@@@ Tune index: 192
